X: 147108
T: An ARRAN LILT
%R: ?
B: James Kerr "Merry Melodies" v.1 p.47 s.1 #8
Z: 2016 John Chambers <jc:trillian.mit.edu>
N: Added flag to last note, to fix the rhythms of repeats.
M: 2/4
L: 1/16
K: G
|: (3(uABc) |\
d3B G3A | B2(3(cBA) B2d2 | e2(3(fed) g2B2 | AGAB A2(3(ABc) |\
d3B G3A | B2(3(cBA) B2d2 | e2(3(fed) g2B2 | AGAB G2 H:|
|: ud2 |\
g2ge f2fd | e2ed (.B2.d2) | g2ge f2fd | e2ed (.B2.d2) |\
g2ge f2fd | e2ed (.B2.d2) | e2(3fed g2B2 | AGAB "_D.C."A2 :|

%%sep 1 1 500
%%sep 1 1 500

